packages/katcn/src/icons/svg/mailAt.svg

<svg width="24" height="24" viewBox="0 0 24 24" fill="none" xmlns="http://www.w3.org/2000/svg">
<path d="M23 11C22.5997 6.10529 18.4971 2.32127 13.5938 2.02159C10.5919 1.82181 7.68999 3.02051 5.68868 5.11824C3.68737 7.31587 2.68671 10.2127 3.08697 13.2095C3.68737 17.6047 7.09712 21.5005 11.5 22C12 22 12.4931 22 12.8934 22C15.295 22 17.5965 21.2009 19.3976 19.6026C19.7979 19.203 19.898 18.6037 19.4977 18.2041C19.0974 17.8045 18.4971 17.7046 18.0968 18.1042C16.3957 19.6026 14.0942 20.3018 11.7927 20.0022C8.19031 19.6026 5.40026 16.6058 5 13.0097C4.79987 10.5124 5.38848 8.31479 7.08959 6.51673C8.69064 4.81857 11.0922 3.81965 13.4938 4.01943C17.3963 4.21922 20.5984 7.41576 20.9987 11.3116C20.9987 11.9109 20.9987 12.4104 20.9987 13.0097C20.8986 13.8089 20.1982 14.4082 19.1975 14.4082C18.2969 14.4082 17.4964 13.6091 17.4964 12.71V12.0108C17.4964 9.51349 15.4951 7.51565 12.9935 7.51565C10.4918 7.51565 8.49051 9.51349 8.49051 12.0108C8.49051 14.5081 10.4918 16.5059 12.9935 16.5059C14.2943 16.5059 15.395 15.9066 16.2956 15.1074C16.9961 16.0065 18.0968 16.5059 19.2976 16.5059C21.1988 16.5059 23 15 23 13.4093C23 12.5 23.0563 11.688 23 11ZM12.8934 14.5081C11.4925 14.5081 10.3918 13.4093 10.3918 12.0108C10.3918 10.6123 11.4925 9.51349 12.8934 9.51349C14.2943 9.51349 15.395 10.6123 15.395 12.0108C15.395 13.4093 14.2943 14.5081 12.8934 14.5081Z" fill="black"/>
</svg>

<svg xmlns="http://www.w3.org/2000/svg" fill="none" viewBox="0 0 24 24"><path fill="#000" d="M23 11c-.4-4.895-4.503-8.679-9.406-8.978-3.002-.2-5.904.999-7.905 3.096-2.002 2.198-3.002 5.095-2.602 8.092.6 4.395 4.01 8.29 8.413 8.79h1.393c2.402 0 4.703-.8 6.505-2.397.4-.4.5-1 .1-1.399-.4-.4-1-.5-1.401-.1-1.701 1.499-4.003 2.198-6.304 1.898C8.19 19.602 5.4 16.606 5 13.01c-.2-2.498.388-4.695 2.09-6.493 1.6-1.698 4.002-2.697 6.404-2.498 3.902.2 7.104 3.397 7.505 7.293v1.698c-.1.799-.8 1.398-1.801 1.398-.901 0-1.702-.799-1.702-1.698v-.7a4.48 4.48 0 0 0-4.502-4.494A4.48 4.48 0 0 0 8.49 12.01a4.48 4.48 0 0 0 4.502 4.495c1.301 0 2.402-.6 3.303-1.399.7.9 1.8 1.399 3.002 1.399 1.9 0 3.702-1.506 3.702-3.097 0-.909.056-1.721 0-2.409m-10.107 3.508a2.475 2.475 0 0 1-2.501-2.497c0-1.399 1.1-2.498 2.501-2.498s2.502 1.1 2.502 2.498-1.1 2.497-2.502 2.497"/></svg>
